X: 22
T: Capt Tates Minuet
%R: minuet
B: Straight & Skillern "Minuets for the year 1777", p.22
F: http://www.vwml.org/browse/browse-collections-dance-tune-books/browse-straight1777
Z: 2014 John Chambers <jc:trillian.mit.edu>
M: 3/4
L: 1/8
K: F
% - - - - - - - - - - - - - - - - - - - - - - - - - - - - -
% Voice 1 formatted for a US-letter/A4 page size.
V: 1
|:\
A3 Bcd | G2 G2 A2 | B3 c {e}dc/B/ | {B2}A4 c2 |\
d3 e {g}fe/d/ | c2 BABc | {d}cB A2 G>F | F6 :|
|:\
f3 g {b}ag/f/ | (g/a/)(f/g/) (e/f/)(d/e/) c2 | d3 e {g}fe/d/ | Tc3 B A2 |\
B3 c {e}dc/B/ | (c/d/)(B/c/) (A/B/)(G/A/) F2 | {c}B>A {A2}TG4 | {G2}F6 :|
% - - - - - - - - - - - - - - - - - - - - - - - - - - - - -
% Voice 2 preserves the original staff breaks.
V: 2 clef=bass middle=d
|:\
f2 F2 z2 | c'2 c2 z2 | g2 e2 c2 | f2 F2 z2 |\
b2 g2 b2 | c'defga | b2 c'2 c2 | f3 (abg) :|\
|: f2 f2 f2 |
c'2 c2 z2 | b2 g2 b2 | c'2 e2 f2 |\
b2 g2 e2 | f2 f2 a2 | b2 c'2 c2 | f6 :|
% - - - - - - - - - - - - - - - - - - - - - - - - - - - - -

%%sep 1 1 500
%%sep 1 1 500
